src/app/icons/heading2.svg

<?xml version="1.0" encoding="UTF-8" standalone="no"?>
<svg
   xmlns:dc="http://purl.org/dc/elements/1.1/"
   xmlns:cc="http://creativecommons.org/ns#"
   xmlns:rdf="http://www.w3.org/1999/02/22-rdf-syntax-ns#"
   xmlns:svg="http://www.w3.org/2000/svg"
   xmlns="http://www.w3.org/2000/svg"
   xmlns:sodipodi="http://sodipodi.sourceforge.net/DTD/sodipodi-0.dtd"
   xmlns:inkscape="http://www.inkscape.org/namespaces/inkscape"
   inkscape:version="1.0 (4035a4f, 2020-05-01)"
   sodipodi:docname="heading2.svg"
   id="svg12"
   version="1.1"
   viewBox="0 0 16 16"
   height="16"
   width="16">
  <metadata
     id="metadata18">
    <rdf:RDF>
      <cc:Work
         rdf:about="">
        <dc:format>image/svg+xml</dc:format>
        <dc:type
           rdf:resource="http://purl.org/dc/dcmitype/StillImage" />
        <dc:title></dc:title>
      </cc:Work>
    </rdf:RDF>
  </metadata>
  <defs
     id="defs16" />
  <sodipodi:namedview
     inkscape:bbox-nodes="true"
     inkscape:snap-bbox="true"
     inkscape:guide-bbox="true"
     showguides="true"
     inkscape:current-layer="svg12"
     inkscape:window-maximized="0"
     inkscape:window-y="23"
     inkscape:window-x="1344"
     inkscape:cy="8"
     inkscape:cx="8.1470585"
     inkscape:zoom="36.208333"
     showgrid="true"
     id="namedview14"
     inkscape:window-height="1035"
     inkscape:window-width="1920"
     inkscape:pageshadow="2"
     inkscape:pageopacity="0"
     guidetolerance="10"
     gridtolerance="10"
     objecttolerance="10"
     borderopacity="1"
     bordercolor="#666666"
     pagecolor="#ffffff">
    <inkscape:grid
       id="grid91"
       type="xygrid" />
  </sodipodi:namedview>
  <path
     sodipodi:nodetypes="ssccccccccccss"
     style="stroke-width:1.00002"
     id="path10"
     d="M 1.7500114,2 C 2.1642313,2 2.5000228,2.3357915 2.5000228,2.7500114 V 6.2499886 H 7.4999887 V 2.7500114 c 5.654e-4,-0.9994488 1.500588,-0.9994488 1.5000226,0 V 11.75 c -5.654e-4,0.999449 -1.500588,0.999449 -1.5000226,0 V 7.7500114 H 2.5000228 V 11.75 C 2.49974,12.749732 0.99971724,12.749732 1,11.75 V 2.7500114 C 1,2.3357915 1.3357915,2 1.7500114,2 Z"
     fill-rule="evenodd" />
  <g
     style="font-style:normal;font-variant:normal;font-weight:bold;font-stretch:normal;font-size:9.80392px;line-height:1.25;font-family:'PT Mono';-inkscape-font-specification:'PT Mono, Bold';font-variant-ligatures:normal;font-variant-caps:normal;font-variant-numeric:normal;font-variant-east-asian:normal;opacity:1;fill:#000000;fill-opacity:1;stroke:none;stroke-width:0.245097"
     id="text22-4-4-6-6"
     aria-label="2">
    <path
       id="path486"
       style="stroke-width:0.245097"
       d="m 14.992066,13.973044 h -4.372548 v -0.95098 q 0.117647,-0.09804 0.294118,-0.254902 0.17647,-0.166666 0.392157,-0.372549 0.22549,-0.205882 0.470588,-0.45098 0.245098,-0.245098 0.480392,-0.509804 0.333333,-0.372549 0.578431,-0.67647 0.254902,-0.303922 0.411765,-0.568628 0.166666,-0.2745094 0.245098,-0.5294113 0.07843,-0.2647058 0.07843,-0.5392156 0,-0.1960784 -0.08824,-0.3823529 -0.08823,-0.1862744 -0.245098,-0.3235293 -0.156863,-0.1470588 -0.382353,-0.2254902 -0.215686,-0.088235 -0.480392,-0.088235 -0.352941,0 -0.647059,0.1078432 -0.284314,0.1078431 -0.598039,0.362745 L 10.619518,7.669124 q 0.411765,-0.2941176 0.911765,-0.490196 0.509804,-0.2058823 1.166666,-0.2058823 0.421569,0 0.803922,0.117647 0.392156,0.117647 0.686274,0.3529411 0.303922,0.2254902 0.480392,0.5686274 0.176471,0.3431372 0.176471,0.7941175 0,0.3137254 -0.05882,0.5882352 -0.04902,0.2647058 -0.166667,0.5392155 -0.107843,0.2647056 -0.294117,0.5490196 -0.176471,0.284314 -0.431373,0.617647 -0.196078,0.254902 -0.431372,0.519608 -0.22549,0.254902 -0.45098,0.490196 -0.225491,0.235294 -0.450981,0.441176 -0.215686,0.205882 -0.392156,0.343137 h 2.823528 z" />
  </g>
</svg>

<svg xmlns="http://www.w3.org/2000/svg" viewBox="0 0 16 16" height="16" width="16"><path d="M1.75 2a.75.75 0 0 1 .75.75v3.5h5v-3.5c0-1 1.5-1 1.5 0v9c0 1-1.5 1-1.5 0v-4h-5v4c0 1-1.5 1-1.5 0v-9A.75.75 0 0 1 1.75 2z" fill-rule="evenodd"/><path d="M14.992 13.973H10.62v-.95q.117-.099.294-.256l.392-.372q.225-.206.47-.451.245-.245.48-.51.334-.373.58-.677.254-.304.411-.568.167-.275.245-.53.078-.264.078-.539 0-.196-.088-.382-.088-.187-.245-.324-.157-.147-.382-.225-.216-.089-.48-.089-.354 0-.648.108-.284.108-.598.363l-.51-.902q.412-.294.912-.49.51-.206 1.167-.206.422 0 .804.118.392.117.686.353.304.225.48.568.177.343.177.794 0 .314-.059.589-.049.264-.166.539-.108.265-.295.549-.176.284-.431.617-.196.255-.431.52-.226.255-.451.49-.226.236-.451.441-.216.206-.392.344h2.823z"/></svg>
